img/foundation-icons/fi-annotate.svg

<?xml version="1.0" encoding="utf-8"?>
<!-- Generator: Adobe Illustrator 17.0.0, SVG Export Plug-In . SVG Version: 6.00 Build 0)  -->
<!DOCTYPE svg PUBLIC "-//W3C//DTD SVG 1.1//EN" "http://www.w3.org/Graphics/SVG/1.1/DTD/svg11.dtd">
<svg version="1.1" id="Layer_1" xmlns="http://www.w3.org/2000/svg" xmlns:xlink="http://www.w3.org/1999/xlink" x="0px" y="0px"
	 width="100px" height="100px" viewBox="0 0 100 100" enable-background="new 0 0 100 100" xml:space="preserve">
<g>
	<path d="M82.488,68.439V31.561c3.232-1.769,5.424-5.199,5.424-9.143c0-5.753-4.664-10.417-10.417-10.417
		c-3.559,0-6.698,1.788-8.577,4.512H31.083c-1.879-2.724-5.018-4.512-8.577-4.512c-5.753,0-10.417,4.664-10.417,10.417
		c0,3.944,2.192,7.375,5.424,9.143v36.877c-3.232,1.769-5.424,5.199-5.424,9.143c0,5.753,4.664,10.417,10.417,10.417
		c4.371,0,8.107-2.695,9.653-6.512h35.682c1.546,3.816,5.282,6.512,9.653,6.512c5.753,0,10.417-4.664,10.417-10.417
		C87.911,73.638,85.719,70.208,82.488,68.439z M27.488,68.432V31.568c2.054-1.121,3.689-2.912,4.61-5.081h35.806
		c0.921,2.168,2.556,3.96,4.61,5.081v36.864c-1.379,0.752-2.561,1.813-3.473,3.081H30.961
		C30.049,70.244,28.866,69.184,27.488,68.432z"/>
</g>
</svg>

<svg xmlns="http://www.w3.org/2000/svg" width="100" height="100" viewBox="0 0 100 100"><path d="M82.488 68.44V31.56a10.413 10.413 0 0 0 5.424-9.142C87.912 16.665 83.248 12 77.495 12c-3.56 0-6.698 1.79-8.577 4.513H31.083A10.402 10.402 0 0 0 22.506 12C16.753 12 12.09 16.666 12.09 22.42c0 3.944 2.19 7.375 5.423 9.143V68.44a10.413 10.413 0 0 0-5.424 9.143C12.09 83.335 16.752 88 22.505 88c4.37 0 8.107-2.695 9.653-6.512h35.68c1.547 3.816 5.283 6.512 9.654 6.512 5.753 0 10.417-4.664 10.417-10.417 0-3.942-2.19-7.372-5.422-9.14zm-55-.008V31.568a10.456 10.456 0 0 0 4.61-5.08h35.806a10.46 10.46 0 0 0 4.61 5.08v36.864a10.455 10.455 0 0 0-3.473 3.08H30.96a10.453 10.453 0 0 0-3.472-3.08z"/></svg>
